X:1372
T:Körepolska
T:(SvL Skåne nr. 1372)
T:efter Lasse i Lyby
R:Körepolska
Z:Patrik Månsson, 2009-01-13
O:Lyby, Skåne
S:Svenska Låtar Skåne
B:Svenska Låtar Skåne
M:3/4
L:1/16
K:C
|:G2|G3G c4 G2ze | e3e e4 c2ze | g3g g2g2 e2g2 | a3b g4 :|
|: e2 | f3g a2a2 a2b2|c'3a a4 g2zg|f3e (d2B2) G2B2|d3e c6:|

